app/dist/common/images/zephyr-energy-plc.svg

<svg height="18" viewBox="0 0 18 18" width="18" xmlns="http://www.w3.org/2000/svg"><path d="m0 0h18v18h-18z" fill="#f0f3fa"/><path d="m16 8.98-7-5.98-7 6 7 6zm-1 .02-6-5.08-6 5.08 6 5.08z" fill="#3a4c66" fill-rule="evenodd"/><path d="m7 8v-2h4v.53l-.9 1.47h-1.13l.94-1.6h-1.66s-.89.08-.89 1.6zm4 2v2h-4v-.5l.98-1.5h1.11l-1 1.6h1.69s.86-.08.86-1.6z" fill="#3a4c66"/><path d="m5 8.5h8v1h-8z" fill="#66b7b1"/></svg>

<!-- by TradingView --><svg width="18" height="18" viewBox="0 0 18 18" xmlns="http://www.w3.org/2000/svg"><path fill="#F0F3FA" d="M0 0h18v18H0z"/><path fill-rule="evenodd" d="M16 8.98 9 3 2 9l7 6 7-6.02ZM15 9 9 3.92 3 9l6 5.08L15 9Z" fill="#3A4C66"/><path d="M7 8V6h4v.53L10.1 8H8.97l.94-1.6H8.25s-.89.08-.89 1.6H7ZM11 10v2H7v-.5l.98-1.5h1.11l-1 1.6h1.69s.86-.08.86-1.6H11Z" fill="#3A4C66"/><path fill="#66B7B1" d="M5 8.5h8v1H5z"/></svg>
